img/icons/hardware/usb-key.svg

<svg fill="none" viewBox="0 0 16 16" xmlns="http://www.w3.org/2000/svg"><path d="m4.23 1.85c-0.228 0.551-0.228 1.25-0.228 2.65v5.3c0 1.12 0 1.68 0.218 2.11 0.192 0.376 0.498 0.682 0.874 0.874 0.238 0.121 0.516 0.175 0.908 0.199v2.52c0 0.276 0.224 0.5 0.5 0.5h4c0.276 0 0.5-0.224 0.5-0.5v-2.52c0.392-0.0239 0.67-0.0778 0.908-0.199 0.376-0.192 0.682-0.498 0.874-0.874 0.218-0.428 0.218-0.988 0.218-2.11v-5.3c0-1.4 0-2.1-0.228-2.65-0.304-0.735-0.888-1.32-1.62-1.62-0.551-0.228-1.25-0.228-2.65-0.228s-2.1 0-2.65 0.228c-0.735 0.304-1.32 0.889-1.62 1.62zm7.77 7.95v-5.3c0-0.713-5e-4 -1.2-0.0262-1.57-0.0251-0.367-0.0707-0.558-0.126-0.692-0.203-0.49-0.592-0.879-1.08-1.08-0.134-0.0553-0.324-0.101-0.692-0.126-0.376-0.0257-0.861-0.0262-1.57-0.0262s-1.2 5.4e-4 -1.57 0.0262c-0.367 0.0251-0.558 0.0707-0.692 0.126-0.49 0.203-0.879 0.592-1.08 1.08-0.0553 0.134-0.101 0.325-0.126 0.692-0.0257 0.376-0.0262 0.861-0.0262 1.57v5.3c0 0.577 7.8e-4 0.949 0.0239 1.23 0.0222 0.272 0.0599 0.372 0.0851 0.422 0.0959 0.188 0.249 0.341 0.437 0.437 0.0494 0.0252 0.15 0.0629 0.422 0.0851 0.283 0.0231 0.656 0.0239 1.23 0.0239h2.6c0.577 0 0.949-8e-4 1.23-0.0239 0.272-0.0222 0.372-0.0599 0.422-0.0851 0.188-0.0959 0.341-0.249 0.437-0.437 0.0252-0.0494 0.0629-0.15 0.0851-0.422 0.0231-0.283 0.0239-0.656 0.0239-1.23zm-5 5.2v-2h3v2h-3z" clip-rule="evenodd" fill="#000" fill-rule="evenodd"/></svg>

<svg xmlns="http://www.w3.org/2000/svg" viewBox="0 0 16 16" fill="none">
  <path fill="#000" fill-rule="evenodd"
    d="M4.228 1.852C4 2.404 4 3.102 4 4.5v5.3c0 1.12 0 1.68.218 2.108a2 2 0 0 0 .874.874c.238.121.516.175.908.2V15.5a.5.5 0 0 0 .5.5h4a.5.5 0 0 0 .5-.5v-2.519c.392-.024.67-.078.908-.199a2 2 0 0 0 .874-.874C13 11.48 13 10.92 13 9.8V4.5c0-1.398 0-2.096-.228-2.648A3 3 0 0 0 11.148.23C10.597 0 9.898 0 8.5 0 7.102 0 6.403 0 5.852.23a3 3 0 0 0-1.624 1.623ZM12 9.8V4.5c0-.712 0-1.197-.026-1.573-.025-.368-.07-.559-.126-.692a2 2 0 0 0-1.083-1.082c-.133-.056-.324-.101-.692-.126C9.697 1 9.213 1 8.5 1s-1.197 0-1.573.027c-.368.025-.559.07-.692.126a2 2 0 0 0-1.083 1.082c-.055.133-.1.324-.126.692C5.001 3.303 5 3.787 5 4.5v5.3c0 .577 0 .95.024 1.232.022.272.06.373.085.422a1 1 0 0 0 .437.437c.05.025.15.063.422.085C6.25 12 6.623 12 7.2 12h2.6c.577 0 .949 0 1.232-.024.272-.022.373-.06.422-.085a1 1 0 0 0 .437-.437c.025-.05.063-.15.085-.421C12 10.748 12 10.377 12 9.8ZM7 15v-2h3v2H7Z"
    clip-rule="evenodd" />
</svg>
